brandFactory_export/2.Regular/On_2Regular.svg

<?xml version="1.0" encoding="UTF-8"?>
<svg width="24px" height="24px" viewBox="0 0 24 24" version="1.1" xmlns="http://www.w3.org/2000/svg" xmlns:xlink="http://www.w3.org/1999/xlink">
    <title>2.Regular/On_2Regular</title>
    <g id="Symbols" stroke="none" stroke-width="1" fill="none" fill-rule="evenodd">
        <g id="2.Regular/On_2Regular" fill="#5CB615" fill-rule="nonzero">
            <path d="M12.3058824,22.205042 C14.6218487,22.1613445 22.1781513,21.2907563 22.1781513,11.8756303 C22.1781513,2.4605042 14.5848739,1.54621849 12.2588235,1.49243697 C11.9428571,1.48235294 11.5663866,1.47563025 11.2336134,1.48235294 C8.93781513,1.50252101 1.4487395,2.3092437 1.4487395,11.8117647 C1.4487395,21.3310924 9.00168067,22.1781513 11.3176471,22.2117647 C11.6470588,22.2151261 12.010084,22.2117647 12.3058824,22.205042 L12.3058824,22.205042 Z M12.292437,0.043697479 C14.1815126,0.087394958 23.6235294,0.870588235 23.6235294,11.8722689 C23.6235294,22.8806723 14.2184874,23.6134454 12.3327731,23.6470588 C12.1310924,23.6504202 11.902521,23.6537815 11.6705882,23.6537815 C11.5428571,23.6537815 11.4184874,23.6537815 11.2941176,23.6504202 C9.40840336,23.6235294 0,22.9243697 0,11.805042 C0,9.85546218 0.541176471,0.124369748 11.2168067,0.0302521008 C11.5731092,0.0302521008 11.9663866,0.0369747899 12.292437,0.043697479 Z M7.73445378,15.4722689 C8.71260504,15.4722689 9.71428571,15.0857143 9.71428571,12.2084034 C9.71428571,9.29747899 8.65546218,8.92436975 7.73445378,8.92436975 C6.74957983,8.92436975 5.74453782,9.31428571 5.74453782,12.2084034 C5.74453782,15.0857143 6.74957983,15.4722689 7.73445378,15.4722689 L7.73445378,15.4722689 Z M7.73445378,7.61344538 C9.24369748,7.61344538 11.0487395,8.41008403 11.0487395,12.2084034 C11.0487395,15.9966387 9.24705882,16.7932773 7.73445378,16.7932773 C6.21848739,16.7932773 4.41008403,16 4.41008403,12.2084034 C4.41008403,8.41008403 6.21848739,7.61344538 7.73445378,7.61344538 Z M17.7445378,7.76470588 C18.010084,7.76470588 18.2252101,7.97983193 18.2252101,8.24537815 L18.2252101,16.1478992 C18.2252101,16.4134454 18.010084,16.6285714 17.7445378,16.6285714 L17.4789916,16.6285714 C17.3176471,16.6285714 17.1663866,16.5478992 17.0756303,16.4134454 L13.1966387,10.5411765 L13.1966387,16.1478992 C13.1966387,16.4134454 12.9815126,16.6285714 12.7159664,16.6285714 L12.3932773,16.6285714 C12.1277311,16.6285714 11.912605,16.4134454 11.912605,16.1478992 L11.912605,8.24537815 C11.912605,7.97983193 12.1277311,7.76470588 12.3932773,7.76470588 L12.6487395,7.76470588 C12.810084,7.76470588 12.9613445,7.84537815 13.0521008,7.97983193 L16.9411765,13.8554622 L16.9411765,8.24537815 C16.9411765,7.97983193 17.1563025,7.76470588 17.4218487,7.76470588 L17.7445378,7.76470588 Z" id="On_2Regular"></path>
        </g>
    </g>
</svg>

<svg width="24" height="24" viewBox="0 0 24 24" xmlns="http://www.w3.org/2000/svg"><path d="M12.306 22.205c2.316-.044 9.872-.914 9.872-10.33 0-9.414-7.593-10.329-9.92-10.383-.315-.01-.692-.016-1.024-.01-2.296.02-9.785.827-9.785 10.33 0 9.52 7.553 10.366 9.869 10.4.33.003.692 0 .988-.007zM12.292.044c1.89.043 11.332.827 11.332 11.828 0 11.009-9.406 11.741-11.291 11.775-.202.003-.43.007-.662.007-.128 0-.253 0-.377-.004C9.408 23.624 0 22.924 0 11.805 0 9.855.541.125 11.217.03c.356 0 .75.007 1.075.014zM7.734 15.472c.979 0 1.98-.386 1.98-3.264 0-2.91-1.059-3.284-1.98-3.284-.984 0-1.99.39-1.99 3.284 0 2.878 1.006 3.264 1.99 3.264zm0-7.859c1.51 0 3.315.797 3.315 4.595 0 3.789-1.802 4.585-3.315 4.585-1.516 0-3.324-.793-3.324-4.585 0-3.798 1.808-4.595 3.324-4.595zm10.01.152a.48.48 0 01.481.48v7.903a.48.48 0 01-.48.48h-.266a.487.487 0 01-.403-.215l-3.88-5.872v5.607a.48.48 0 01-.48.48h-.323a.48.48 0 01-.48-.48V8.245a.48.48 0 01.48-.48h.256c.161 0 .312.08.403.215l3.89 5.875v-5.61a.48.48 0 01.48-.48h.323z" fill="#5CB615" fill-rule="nonzero"/></svg>
